X:659
T:Mr. Compton of Compton Hall
R:Reel
C:Alexander Givan
B:The Athole Collection
M:C|
L:1/8
K:A
E|A2cA ecac|A2cA B=FFB|A2cA ecae|dfe>d c<AA:|
e|aece dfce|aece fg|aece dfce|fg/a/ ed cAAg|
aece dfce|aece fBBc|AEF>G A>Bc>d|cedB cAA||
